X: 524
T: Dongshan diao
L: 1/8
M: 2/4
K: G
d d B d [I:setbarnb 1]| 
e dA2 | 
d e d B | 
A GD2 | 
G A B d | 
A BD2 | 
G G A E | 
D4 |]

@@@ Tune index: 9398
